app/dist/common/images/associated-british-foods.svg

<svg height="18" viewBox="0 0 18 18" width="18" xmlns="http://www.w3.org/2000/svg"><path d="m0 0h18v18h-18z" fill="#f0f3fa"/><path d="m9.83 9.41h-.83v1.59h.79c.73 0 1.21-.26 1.21-.8 0-.47-.5-.79-1.17-.79zm-.2-2.41h-.63v1.51h.74a.82.82 0 0 0 .78-.8c0-.46-.29-.71-.9-.71zm.26 5h-1.89v-6h1.9c1.16 0 1.71.76 1.71 1.5 0 .51-.25 1-.74 1.24.66.16 1.13.75 1.13 1.46 0 .85-.61 1.8-2.11 1.8zm5.84-5h-1.73v1h1.5v1h-1.5v3h-1v-6h3zm-11.07 1.24c-.1-.3-.16-.55-.2-.74h-.01c-.04.2-.11.44-.2.72l-.56 1.78h1.47zm1.28 3.76-.47-1h-2.12l-.37 1h-.98l2.1-6h.72l2.18 6z" fill="#d31145"/></svg>

<!-- by TradingView --><svg width="18" height="18" viewBox="0 0 18 18" xmlns="http://www.w3.org/2000/svg"><path fill="#F0F3FA" d="M0 0h18v18H0z"/><path d="M9.83 9.41H9V11h.79c.73 0 1.21-.26 1.21-.8 0-.47-.5-.79-1.17-.79ZM9.63 7H9v1.51h.74a.82.82 0 0 0 .78-.8c0-.46-.29-.71-.9-.71Zm.26 5H8V6h1.9c1.16 0 1.71.76 1.71 1.5 0 .51-.25 1-.74 1.24.66.16 1.13.75 1.13 1.46 0 .85-.61 1.8-2.11 1.8ZM15.73 7H14v1h1.5v1H14v3h-1V6h3l-.27 1ZM4.66 8.24c-.1-.3-.16-.55-.2-.74h-.01c-.04.2-.11.44-.2.72L3.69 10h1.47l-.5-1.76ZM5.94 12l-.47-1H3.35l-.37 1H2l2.1-6h.72L7 12H5.94Z" fill="#D31145"/></svg>
